; generated by PrusaSlicer 2.4.2+win64 on 2022-08-28 at 07:47:32 UTC

; 

; external perimeters extrusion width = 0.45mm
; perimeters extrusion width = 0.45mm
; infill extrusion width = 0.45mm
; solid infill extrusion width = 0.45mm
; top infill extrusion width = 0.45mm
; support material extrusion width = 0.38mm
; first layer extrusion width = 0.42mm

M107
M190 S90 ; set bed temperature and wait for it to be reached
M104 S245 ; set temperature
;TYPE:Custom
G28 ; home all axes
G1 Z5 F5000 ; lift nozzle
M109 S245 ; set temperature and wait for it to be reached
G21 ; set units to millimeters
G90 ; use absolute coordinates
M82 ; use absolute distances for extrusion
G92 E0
M107
;LAYER_CHANGE
;Z:0.25
;HEIGHT:0.25
G1 Z.25 F9000
G1 E-2 F2400
G92 E0
G1 X111.112 Y13.298 F9000
G1 E2 F2400
M204 S500
;TYPE:Skirt/Brim
;WIDTH:0.42
G1 F1200
G1 X111.506 Y11.718 E2.06202
G1 X112.596 Y10.507 E2.12404
G1 X114.478 Y9.932 E2.19899
G1 X176.217 Y9.932 E4.54985
G1 X177.797 Y10.326 E4.61187
G1 X179.007 Y11.416 E4.67389
G1 X179.553 Y12.853 E4.73244
G1 X193.512 Y117.539 E8.7539
G1 X193.541 Y184.375 E11.29886
G1 X193.147 Y185.956 E11.36089
G1 X192.057 Y187.166 E11.42291
G1 X190.175 Y187.742 E11.49786
G1 X183.918 Y187.741 E11.73608
G1 X114.938 Y186.478 E14.36312
G1 X113.365 Y186.055 E14.42514
G1 X112.175 Y184.943 E14.48716
G1 X111.634 Y183.123 E14.55948
G1 X111.112 Y13.358 E21.02374
G1 E19.02374 F2400
G92 E0
G1 X127.363 Y16.408 F9000
G1 E2 F2400
;TYPE:Support material
G1 F1200
G1 X114.801 Y16.408 E2.47833
G1 X114.52 Y16.689 E2.49347
G1 X114.52 Y17.158 E2.51133
G1 X114.478 Y17.158 E2.51292
G1 X114.478 Y13.298 E2.65987
G1 X127.363 Y13.298 E3.15051
G1 X127.363 Y16.353 E3.26681
G1 X126.798 Y16.243 F9000
G1 F1200
G1 X126.798 Y13.628 E3.36638
G1 X126.391 Y13.628 E3.38188
G1 X126.391 Y16.078 E3.47516
G1 X125.984 Y16.078 E3.49066
G1 X125.984 Y13.628 E3.58395
G1 X125.577 Y13.628 E3.59945
G1 X125.577 Y16.078 E3.69273
G1 X125.17 Y16.078 E3.70823
G1 X125.17 Y13.628 E3.80151
G1 X124.763 Y13.628 E3.81701
G1 X124.763 Y16.078 E3.9103
G1 X124.356 Y16.078 E3.9258
G1 X124.356 Y13.628 E4.01908
G1 X123.948 Y13.628 E4.03458
G1 X123.948 Y16.078 E4.12787
G1 X123.541 Y16.078 E4.14337
G1 X123.541 Y13.628 E4.23665
G1 X123.134 Y13.628 E4.25215
G1 X123.134 Y16.078 E4.34544
G1 X122.727 Y16.078 E4.36094
G1 X122.727 Y13.628 E4.45422
G1 X122.32 Y13.628 E4.46972
G1 X122.32 Y16.078 E4.56301
G1 X121.913 Y16.078 E4.57851
G1 X121.913 Y13.628 E4.67179
G1 X121.506 Y13.628 E4.68729
G1 X121.506 Y16.078 E4.78057
G1 X121.099 Y16.078 E4.79607
G1 X121.099 Y13.628 E4.88936
G1 X120.692 Y13.628 E4.90486
G1 X120.692 Y16.078 E4.99814
G1 X120.285 Y16.078 E5.01364
G1 X120.285 Y13.628 E5.10693
G1 X119.878 Y13.628 E5.12243
G1 X119.878 Y16.078 E5.21571
G1 X119.471 Y16.078 E5.23121
G1 X119.471 Y13.628 E5.3245
G1 X119.064 Y13.628 E5.34
G1 X119.064 Y16.078 E5.43328
G1 X118.657 Y16.078 E5.44878
G1 X118.657 Y13.628 E5.54207
G1 X118.25 Y13.628 E5.55757
G1 X118.25 Y16.078 E5.65085
G1 X117.843 Y16.078 E5.66635
G1 X117.843 Y13.628 E5.75964
G1 X117.436 Y13.628 E5.77514
G1 X117.436 Y16.078 E5.86842
G1 X117.029 Y16.078 E5.88392
G1 X117.029 Y13.628 E5.9772
G1 X116.621 Y13.628 E5.9927
G1 X116.621 Y16.078 E6.08599
G1 X116.214 Y16.078 E6.10149
G1 X116.214 Y13.628 E6.19477
G1 X115.807 Y13.628 E6.21027
G1 X115.807 Y16.078 E6.30356
G1 X115.4 Y16.078 E6.31906
G1 X115.4 Y13.628 E6.41234
G1 X114.993 Y13.628 E6.42784
G1 X114.993 Y16.243 E6.5274
G1 E4.5274 F2400
G92 E0
G1 X152.953 Y16.408 F9000
G1 E2 F2400
G1 F1200
G1 X137.742 Y16.408 E2.57922
G1 X137.742 Y13.298 E2.69761
G1 X152.953 Y13.298 E3.27683
G1 X152.953 Y16.353 E3.39314
G1 X152.442 Y16.243 F9000
G1 F1200
G1 X152.442 Y13.628 E3.4927
G1 X152.035 Y13.628 E3.5082
G1 X152.035 Y16.078 E3.60148
G1 X151.628 Y16.078 E3.61698
G1 X151.628 Y13.628 E3.71027
G1 X151.221 Y13.628 E3.72577
G1 X151.221 Y16.078 E3.81905
G1 X150.814 Y16.078 E3.83455
G1 X150.814 Y13.628 E3.92784
G1 X150.407 Y13.628 E3.94334
G1 X150.407 Y16.078 E4.03662
G1 X150 Y16.078 E4.05212
G1 X150 Y13.628 E4.14541
G1 X149.593 Y13.628 E4.1609
G1 X149.593 Y16.078 E4.25419
G1 X149.186 Y16.078 E4.26969
G1 X149.186 Y13.628 E4.36297
G1 X148.779 Y13.628 E4.37847
G1 X148.779 Y16.078 E4.47176
G1 X148.372 Y16.078 E4.48726
G1 X148.372 Y13.628 E4.58054
G1 X147.965 Y13.628 E4.59604
G1 X147.965 Y16.078 E4.68933
G1 X147.558 Y16.078 E4.70483
G1 X147.558 Y13.628 E4.79811
G1 X147.151 Y13.628 E4.81361
G1 X147.151 Y16.078 E4.9069
G1 X146.744 Y16.078 E4.9224
G1 X146.744 Y13.628 E5.01568
G1 X146.337 Y13.628 E5.03118
G1 X146.337 Y16.078 E5.12447
G1 X145.929 Y16.078 E5.13997
G1 X145.929 Y13.628 E5.23325
G1 X145.522 Y13.628 E5.24875
G1 X145.522 Y16.078 E5.34203
G1 X145.115 Y16.078 E5.35753
G1 X145.115 Y13.628 E5.45082
G1 X144.708 Y13.628 E5.46632
G1 X144.708 Y16.078 E5.5596
G1 X144.301 Y16.078 E5.5751
G1 X144.301 Y13.628 E5.66839
G1 X143.894 Y13.628 E5.68389
G1 X143.894 Y16.078 E5.77717
G1 X143.487 Y16.078 E5.79267
G1 X143.487 Y13.628 E5.88596
G1 X143.08 Y13.628 E5.90146
G1 X143.08 Y16.078 E5.99474
G1 X142.673 Y16.078 E6.01024
G1 X142.673 Y13.628 E6.10353
G1 X142.266 Y13.628 E6.11903
G1 X142.266 Y16.078 E6.21231
G1 X141.859 Y16.078 E6.22781
G1 X141.859 Y13.628 E6.3211
G1 X141.452 Y13.628 E6.33659
G1 X141.452 Y16.078 E6.42988
G1 X141.045 Y16.078 E6.44538
G1 X141.045 Y13.628 E6.53866
G1 X140.638 Y13.628 E6.55416
G1 X140.638 Y16.078 E6.64745
G1 X140.231 Y16.078 E6.66295
G1 X140.231 Y13.628 E6.75623
G1 X139.824 Y13.628 E6.77173
G1 X139.824 Y16.078 E6.86502
G1 X139.417 Y16.078 E6.88052
G1 X139.417 Y13.628 E6.9738
G1 X139.01 Y13.628 E6.9893
G1 X139.01 Y16.078 E7.08259
G1 X138.602 Y16.078 E7.09809
G1 X138.602 Y13.628 E7.19137
G1 X138.195 Y13.628 E7.20687
G1 X138.195 Y16.243 E7.30643
G1 E5.30643 F2400
G92 E0
G1 X176.217 Y17.908 F9000
G1 E2 F2400
G1 F1200
G1 X175.48 Y17.908 E2.02805
G1 X175.48 Y16.689 E2.07446
G1 X175.199 Y16.408 E2.0896
G1 X161.005 Y16.408 E2.63006
G1 X161.005 Y13.298 E2.74846
G1 X176.217 Y13.298 E3.32768
G1 X176.217 Y17.853 E3.50109
G1 X175.644 Y16.62 F9000
G1 F1200
G1 X175.644 Y13.628 E3.61502
G1 X175.237 Y13.628 E3.63052
G1 X175.237 Y16.078 E3.72381
G1 X174.83 Y16.078 E3.73931
G1 X174.83 Y13.628 E3.83259
G1 X174.423 Y13.628 E3.84809
G1 X174.423 Y16.078 E3.94138
G1 X174.016 Y16.078 E3.95688
G1 X174.016 Y13.628 E4.05016
G1 X173.609 Y13.628 E4.06566
G1 X173.609 Y16.078 E4.15895
G1 X173.202 Y16.078 E4.17445
G1 X173.202 Y13.628 E4.26773
G1 X172.795 Y13.628 E4.28323
G1 X172.795 Y16.078 E4.37652
G1 X172.388 Y16.078 E4.39201
G1 X172.388 Y13.628 E4.4853
G1 X171.981 Y13.628 E4.5008
G1 X171.981 Y16.078 E4.59408
G1 X171.574 Y16.078 E4.60958
G1 X171.574 Y13.628 E4.70287
G1 X171.167 Y13.628 E4.71837
G1 X171.167 Y16.078 E4.81165
G1 X170.76 Y16.078 E4.82715
G1 X170.76 Y13.628 E4.92044
G1 X170.353 Y13.628 E4.93594
G1 X170.353 Y16.078 E5.02922
G1 X169.946 Y16.078 E5.04472
G1 X169.946 Y13.628 E5.13801
G1 X169.539 Y13.628 E5.15351
G1 X169.539 Y16.078 E5.24679
G1 X169.132 Y16.078 E5.26229
G1 X169.132 Y13.628 E5.35558
G1 X168.725 Y13.628 E5.37108
G1 X168.725 Y16.078 E5.46436
G1 X168.317 Y16.078 E5.47986
G1 X168.317 Y13.628 E5.57314
G1 X167.91 Y13.628 E5.58864
G1 X167.91 Y16.078 E5.68193
G1 X167.503 Y16.078 E5.69743
G1 X167.503 Y13.628 E5.79071
G1 X167.096 Y13.628 E5.80621
G1 X167.096 Y16.078 E5.8995
G1 X166.689 Y16.078 E5.915
G1 X166.689 Y13.628 E6.00828
G1 X166.282 Y13.628 E6.02378
G1 X166.282 Y16.078 E6.11707
G1 X165.875 Y16.078 E6.13257
G1 X165.875 Y13.628 E6.22585
G1 X165.468 Y13.628 E6.24135
G1 X165.468 Y16.078 E6.33464
G1 X165.061 Y16.078 E6.35014
G1 X165.061 Y13.628 E6.44342
G1 X164.654 Y13.628 E6.45892
G1 X164.654 Y16.078 E6.55221
G1 X164.247 Y16.078 E6.5677
G1 X164.247 Y13.628 E6.66099
G1 X163.84 Y13.628 E6.67649
G1 X163.84 Y16.078 E6.76977
G1 X163.433 Y16.078 E6.78527
G1 X163.433 Y13.628 E6.87856
G1 X163.026 Y13.628 E6.89406
G1 X163.026 Y16.078 E6.98734
G1 X162.619 Y16.078 E7.00284
G1 X162.619 Y13.628 E7.09613
G1 X162.212 Y13.628 E7.11163
G1 X162.212 Y16.078 E7.20491
G1 X161.805 Y16.078 E7.22041
G1 X161.805 Y13.628 E7.3137
G1 X161.398 Y13.628 E7.3292
G1 X161.398 Y16.243 E7.42876
G1 E5.42876 F2400
G92 E0
G1 X190.175 Y161.112 F9000
G1 E2 F2400
G1 F1200
G1 X185.48 Y161.112 E2.17876
G1 X185.48 Y122.904 E3.63361
G1 X185.199 Y122.623 E3.64875
G1 X175.48 Y122.623 E4.01882
G1 X175.48 Y117.984 E4.19547
G1 X190.175 Y117.984 E4.75501
G1 X190.175 Y161.057 E6.39512
G1 X189.484 Y160.947 F9000
G1 F1200
G1 X189.484 Y118.314 E8.01849
G1 X189.077 Y118.314 E8.03398
G1 X189.077 Y160.782 E9.65108
G1 X188.67 Y160.782 E9.66658
G1 X188.67 Y118.314 E11.28367
G1 X188.263 Y118.314 E11.29917
G1 X188.263 Y160.782 E12.91626
G1 X187.856 Y160.782 E12.93176
G1 X187.856 Y118.314 E14.54885
G1 X187.449 Y118.314 E14.56435
G1 X187.449 Y160.782 E16.18144
G1 X187.042 Y160.782 E16.19694
G1 X187.042 Y118.314 E17.81404
G1 X186.635 Y118.314 E17.82954
G1 X186.635 Y160.782 E19.44663
G1 X186.228 Y160.782 E19.46213
G1 X186.228 Y118.314 E21.07922
G1 X185.821 Y118.314 E21.09472
G1 X185.821 Y160.782 E22.71181
G1 X185.81 Y122.768 E24.1593
G1 X185.414 Y122.372 E24.18062
G1 X185.414 Y118.314 E24.33515
G1 X185.007 Y118.314 E24.35065
G1 X185.007 Y122.294 E24.50219
G1 X184.6 Y122.294 E24.51769
G1 X184.6 Y118.314 E24.66923
G1 X184.193 Y118.314 E24.68473
G1 X184.193 Y122.294 E24.83627
G1 X183.786 Y122.294 E24.85177
G1 X183.786 Y118.314 E25.00331
G1 X183.379 Y118.314 E25.01881
G1 X183.379 Y122.294 E25.17035
G1 X182.971 Y122.294 E25.18585
G1 X182.971 Y118.314 E25.33739
G1 X182.564 Y118.314 E25.35289
G1 X182.564 Y122.294 E25.50443
G1 X182.157 Y122.294 E25.51993
G1 X182.157 Y118.314 E25.67147
G1 X181.75 Y118.314 E25.68697
G1 X181.75 Y122.294 E25.83851
G1 X181.343 Y122.294 E25.85401
G1 X181.343 Y118.314 E26.00555
G1 X180.936 Y118.314 E26.02105
G1 X180.936 Y122.294 E26.17259
G1 X180.529 Y122.294 E26.18809
G1 X180.529 Y118.314 E26.33963
G1 X180.122 Y118.314 E26.35513
G1 X180.122 Y122.294 E26.50667
G1 X179.715 Y122.294 E26.52217
G1 X179.715 Y118.314 E26.67371
G1 X179.308 Y118.314 E26.68921
G1 X179.308 Y122.294 E26.84075
G1 X178.901 Y122.294 E26.85625
G1 X178.901 Y118.314 E27.0078
G1 X178.494 Y118.314 E27.0233
G1 X178.494 Y122.294 E27.17484
G1 X178.087 Y122.294 E27.19034
G1 X178.087 Y118.314 E27.34188
G1 X177.68 Y118.314 E27.35738
G1 X177.68 Y122.294 E27.50892
G1 X177.273 Y122.294 E27.52442
G1 X177.273 Y118.314 E27.67596
G1 X176.866 Y118.314 E27.69146
G1 X176.866 Y122.294 E27.843
G1 X176.459 Y122.294 E27.8585
G1 X176.459 Y118.314 E28.01004
G1 X176.052 Y118.314 E28.02554
G1 X176.052 Y122.458 E28.18336
G1 E26.18336 F2400
G92 E0
G1 X190.175 Y184.375 F9000
G1 E2 F2400
G1 F1200
G1 X183.98 Y184.375 E2.23588
G1 X183.98 Y183.592 E2.26569
G1 X185.199 Y183.592 E2.3121
G1 X185.48 Y183.311 E2.32724
G1 X185.48 Y169.164 E2.86594
G1 X190.175 Y169.164 E3.0447
G1 X190.175 Y184.32 E3.62183
G1 X189.484 Y184.21 F9000
G1 F1200
G1 X189.484 Y169.493 E4.18222
G1 X189.077 Y169.493 E4.19772
G1 X189.077 Y184.046 E4.75183
G1 X188.67 Y184.046 E4.76733
G1 X188.67 Y169.493 E5.32144
G1 X188.263 Y169.493 E5.33694
G1 X188.263 Y184.046 E5.89105
G1 X187.856 Y184.046 E5.90655
G1 X187.856 Y169.493 E6.46066
G1 X187.449 Y169.493 E6.47616
G1 X187.449 Y184.046 E7.03027
G1 X187.042 Y184.046 E7.04577
G1 X187.042 Y169.493 E7.59988
G1 X186.635 Y169.493 E7.61538
G1 X186.635 Y184.046 E8.16949
G1 X186.228 Y184.046 E8.18499
G1 X186.228 Y169.493 E8.7391
G1 X185.821 Y169.493 E8.7546
G1 X185.821 Y184.046 E9.30871
G1 X185.414 Y184.046 E9.32421
G1 X185.414 Y183.844 E9.33189
G1 X185.335 Y183.922 E9.33612
G1 X185.007 Y183.922 E9.34863
G1 X185.007 Y184.046 E9.35333
G1 X184.6 Y184.046 E9.36883
G1 X184.6 Y183.757 E9.37982
G1 E7.37982 F2400
G92 E0
G1 X183.591 Y181.703 F9000
G1 E2 F2400
;TYPE:Perimeter
G1 F1200
G1 X116.409 Y181.703 E4.55813
G1 X116.409 Y18.297 E10.78026
G1 X173.591 Y18.297 E12.95761
G1 X173.591 Y124.512 E17.00205
G1 X183.591 Y124.512 E17.38282
G1 X183.591 Y181.643 E19.55823
G1 X183.957 Y182.07 F9000
G1 F1200
G1 X116.043 Y182.07 E22.14426
G1 X116.043 Y17.93 E28.39429
G1 X173.957 Y17.93 E30.59954
G1 X173.957 Y124.146 E34.64398
G1 X183.957 Y124.146 E35.02476
G1 X183.957 Y182.01 E37.22807
G1 X184.324 Y182.436 F9000
G1 F1200
G1 X115.676 Y182.436 E39.84199
G1 X115.676 Y17.564 E46.11992
G1 X174.324 Y17.564 E48.35307
G1 X174.324 Y123.78 E52.39751
G1 X184.324 Y123.78 E52.77829
G1 X184.324 Y182.376 E55.0095
G1 X184.6 Y182.802 F9000
;TYPE:External perimeter
G1 F1200
G1 X115.31 Y182.802 E57.64788
G1 X115.31 Y17.198 E63.95371
G1 X174.69 Y17.198 E66.21476
G1 X174.69 Y123.413 E70.2592
G1 X184.69 Y123.413 E70.63998
G1 X184.69 Y182.802 E72.90137
G1 X184.66 Y182.802 E72.90253
G1 X184.253 Y182.602 F9000
G1 E70.90253 F2400
G92 E0
G1 X173.481 Y19.147 F9000
G1 E2 F2400
;TYPE:Solid infill
;WIDTH:0.420051
G1 F1200
G1 X172.905 Y18.571 E2.03101
G1 X172.387 Y18.571 E2.05075
G1 X173.316 Y19.501 E2.10079
G1 X173.316 Y20.019 E2.12052
G1 X171.869 Y18.571 E2.19847
G1 X171.351 Y18.571 E2.2182
G1 X173.316 Y20.537 E2.32406
G1 X173.316 Y21.055 E2.34379
G1 X170.833 Y18.571 E2.47756
G1 X170.314 Y18.571 E2.49729
G1 X173.316 Y21.573 E2.65896
G1 X173.316 Y22.091 E2.67869
G1 X169.796 Y18.571 E2.86827
G1 X169.278 Y18.571 E2.888
G1 X173.316 Y22.61 E3.10549
G1 X173.316 Y23.128 E3.12522
G1 X168.76 Y18.571 E3.37061
G1 X168.242 Y18.571 E3.39035
G1 X173.316 Y23.646 E3.66365
G1 X173.316 Y24.164 E3.68338
G1 X167.724 Y18.571 E3.98459
G1 X167.205 Y18.571 E4.00432
G1 X173.316 Y24.682 E4.33343
G1 X173.316 Y25.2 E4.35317
G1 X166.687 Y18.571 E4.71019
G1 X166.169 Y18.571 E4.72992
G1 X173.316 Y25.719 E5.11485
G1 X173.316 Y26.237 E5.13458
G1 X165.651 Y18.571 E5.54742
G1 X165.133 Y18.571 E5.56715
G1 X173.316 Y26.755 E6.0079
G1 X173.316 Y27.273 E6.02763
G1 X164.615 Y18.571 E6.49628
G1 X164.096 Y18.571 E6.51601
G1 X173.316 Y27.791 E7.01257
G1 X173.316 Y28.309 E7.0323
G1 X163.578 Y18.571 E7.55677
G1 X163.06 Y18.571 E7.5765
G1 X173.316 Y28.828 E8.12888
G1 X173.316 Y29.346 E8.14861
G1 X162.542 Y18.571 E8.72889
G1 X162.024 Y18.571 E8.74862
G1 X173.316 Y29.864 E9.35681
G1 X173.316 Y30.382 E9.37654
G1 X161.506 Y18.571 E10.01264
G1 X160.987 Y18.571 E10.03237
G1 X173.316 Y30.9 E10.69637
G1 X173.316 Y31.418 E10.7161
G1 X160.469 Y18.571 E11.40801
G1 X159.951 Y18.571 E11.42775
G1 X173.316 Y31.937 E12.14756
G1 X173.316 Y32.455 E12.16729
G1 X159.433 Y18.571 E12.91502
G1 X158.915 Y18.571 E12.93475
G1 X173.316 Y32.973 E13.71038
G1 X173.316 Y33.491 E13.73011
G1 X158.396 Y18.571 E14.53365
G1 X157.878 Y18.571 E14.55339
G1 X173.316 Y34.009 E15.38483
G1 X173.316 Y34.527 E15.40456
G1 X157.36 Y18.571 E16.26392
G1 X156.842 Y18.571 E16.28365
G1 X173.316 Y35.046 E17.17091
G1 X173.316 Y35.564 E17.19064
G1 X156.324 Y18.571 E18.10581
G1 X155.806 Y18.571 E18.12554
G1 X173.316 Y36.082 E19.06862
G1 X173.316 Y36.6 E19.08835
G1 X155.287 Y18.571 E20.05933
G1 X154.769 Y18.571 E20.07906
G1 X173.316 Y37.118 E21.07795
G1 X173.316 Y37.637 E21.09769
G1 X154.251 Y18.571 E22.12448
G1 X153.733 Y18.571 E22.14422
G1 X173.316 Y38.155 E23.19892
G1 X173.316 Y38.673 E23.21865
G1 X153.215 Y18.571 E24.30126
G1 X152.697 Y18.571 E24.321
G1 X173.316 Y39.191 E25.43151
G1 X173.316 Y39.709 E25.45125
G1 X152.178 Y18.571 E26.58967
G1 X151.66 Y18.571 E26.6094
G1 X173.316 Y40.227 E27.77574
G1 X173.316 Y40.746 E27.79547
G1 X151.142 Y18.571 E28.98971
G1 X150.624 Y18.571 E29.00944
G1 X173.316 Y41.264 E30.23159
G1 X173.316 Y41.782 E30.25132
G1 X150.106 Y18.571 E31.50138
G1 X149.588 Y18.571 E31.52111
G1 X173.316 Y42.3 E32.79907
G1 X173.316 Y42.818 E32.8188
G1 X149.069 Y18.571 E34.12467
G1 X148.551 Y18.571 E34.14441
G1 X173.316 Y43.336 E35.47818
G1 X173.316 Y43.855 E35.49791
G1 X148.033 Y18.571 E36.8596
G1 X147.515 Y18.571 E36.87933
G1 X173.316 Y44.373 E38.26892
G1 X173.316 Y44.891 E38.28865
G1 X146.997 Y18.571 E39.70615
G1 X146.479 Y18.571 E39.72589
G1 X173.316 Y45.409 E41.17129
G1 X173.316 Y45.927 E41.19102
G1 X145.96 Y18.571 E42.66434
G1 X145.442 Y18.571 E42.68407
G1 X173.316 Y46.445 E44.18529
G1 X173.316 Y46.964 E44.20502
G1 X144.924 Y18.571 E45.73415
G1 X144.406 Y18.571 E45.75388
G1 X173.316 Y47.482 E47.31092
G1 X173.316 Y48 E47.33065
G1 X143.888 Y18.571 E48.91559
G1 X143.37 Y18.571 E48.93532
G1 X173.316 Y48.518 E50.54817
