; generated by PrusaSlicer 2.4.2+win64 on 2022-08-28 at 07:44:59 UTC

; 

; external perimeters extrusion width = 0.45mm
; perimeters extrusion width = 0.45mm
; infill extrusion width = 0.45mm
; solid infill extrusion width = 0.45mm
; top infill extrusion width = 0.45mm
; support material extrusion width = 0.38mm
; first layer extrusion width = 0.42mm

M107
M190 S90 ; set bed temperature and wait for it to be reached
M104 S245 ; set temperature
;TYPE:Custom
G28 ; home all axes
G1 Z5 F5000 ; lift nozzle
M109 S245 ; set temperature and wait for it to be reached
G21 ; set units to millimeters
G90 ; use absolute coordinates
M82 ; use absolute distances for extrusion
G92 E0
M107
;LAYER_CHANGE
;Z:0.25
;HEIGHT:0.25
G1 Z.25 F9000
G1 E-2 F2400
G92 E0
G1 X82.777 Y89.038 F9000
G1 E2 F2400
M204 S500
;TYPE:Skirt/Brim
;WIDTH:0.42
G1 F1200
G1 X83.652 Y88.408 E2.04107
G1 X88.305 Y86.081 E2.23914
G1 X89.81 Y85.726 E2.29804
G1 X116.747 Y85.727 E3.3237
G1 X217.621 Y88.51 E7.16623
G1 X219.011 Y88.853 E7.22074
G1 X222.822 Y90.723 E7.38239
G1 X224.068 Y91.773 E7.44441
G1 X224.706 Y93.745 E7.52334
G1 X224.706 Y104.304 E7.9254
G1 X224.312 Y105.884 E7.98742
G1 X222.822 Y107.326 E8.06636
G1 X219.011 Y109.196 E8.228
G1 X217.621 Y109.539 E8.28252
G1 X116.747 Y112.322 E12.12504
G1 X103.434 Y112.306 E12.63197
G1 X80.17 Y109.98 E13.5222
G1 X78.637 Y109.431 E13.58422
G1 X77.541 Y108.226 E13.64625
G1 X77.139 Y106.63 E13.70889
G1 X77.139 Y96.071 E14.11095
G1 X77.533 Y94.491 E14.17297
G1 X78.125 Y93.691 E14.21086
G1 X82.735 Y89.081 E14.45912
G1 E12.45912 F2400
G92 E0
G1 X116.183 Y92.045 F9000
G1 E2 F2400
;TYPE:Support material interface
;WIDTH:0.38
G1 F1200
G1 X116.183 Y94.372 E2.07891
G1 X116.71 Y94.372 E2.09677
G1 X116.71 Y92.045 E2.17568
G1 X117.236 Y92.045 E2.19353
G1 X117.236 Y94.372 E2.27244
G1 X117.762 Y94.372 E2.2903
G1 X117.762 Y92.045 E2.36921
G1 X118.289 Y92.045 E2.38706
G1 X118.054 Y92.413 E2.40183
G1 X118.017 Y92.541 E2.40638
G1 X118.679 Y91.716 F9000
G1 F1200
G1 X118.451 Y91.869 E2.41569
G1 X118.353 Y91.979 E2.42068
G1 X118.353 Y89.719 E2.49733
G1 X118.815 Y89.719 E2.51299
G1 X118.815 Y91.626 E2.57766
G1 X118.948 Y91.546 E2.58292
G1 X119.077 Y91.504 E2.58752
G1 X119.341 Y91.464 E2.59659
G1 X119.341 Y89.719 E2.65577
G1 X119.868 Y89.719 E2.67362
G1 X119.868 Y91.442 E2.73206
G1 X120.394 Y91.442 E2.74992
G1 X120.394 Y89.719 E2.80836
G1 X120.68 Y89.719 E2.81805
G1 X120.68 Y91.442 E2.87649
G1 X120.557 Y91.442 E2.88065
G1 E.88065 F2400
G92 E0
G1 X116.654 Y91.419 F9000
G1 E2 F2400
;TYPE:Support material
;WIDTH:0.42
G1 F1200
G1 X117.98 Y91.419 E2.0505
G1 X117.98 Y91.672 E2.06016
G1 X115.654 Y91.672 E2.14874
G1 X115.654 Y94.745 E2.26575
G1 X118.319 Y94.745 E2.36723
G1 X118.319 Y93.022 E2.43283
G1 X118.39 Y92.58 E2.4499
G1 X118.435 Y92.497 E2.4535
G1 X118.685 Y92.161 E2.46943
G1 X119.089 Y91.893 E2.48788
G1 X119.183 Y91.863 E2.49164
G1 X119.526 Y91.815 E2.50485
G1 X120.348 Y91.815 E2.53613
G1 X120.269 Y91.886 E2.54014
G1 X119.283 Y91.882 E2.57768
G1 X119.114 Y91.938 E2.58449
G1 X119.029 Y91.987 E2.58821
G1 X118.569 Y92.399 E2.61172
G1 X118.5 Y92.502 E2.61644
G1 X118.437 Y92.697 E2.62425
G1 X118.389 Y93.005 E2.63609
G1 X118.393 Y105.084 E3.09605
G1 X118.437 Y105.352 E3.10639
G1 X118.5 Y105.547 E3.11419
G1 X118.569 Y105.65 E3.11891
G1 X119.029 Y106.062 E3.14242
G1 X119.114 Y106.111 E3.14615
G1 X119.283 Y106.168 E3.15296
G1 X120.269 Y106.164 E3.19049
G1 X120.348 Y106.234 E3.1945
G1 X119.526 Y106.234 E3.22578
G1 X119.183 Y106.186 E3.23899
G1 X119.089 Y106.156 E3.24275
G1 X118.685 Y105.888 E3.2612
G1 X118.435 Y105.552 E3.27713
G1 X118.39 Y105.469 E3.28073
G1 X118.319 Y105.027 E3.2978
G1 X118.319 Y103.304 E3.3634
G1 X115.654 Y103.304 E3.46488
G1 X115.654 Y106.377 E3.58189
G1 X117.98 Y106.377 E3.67048
G1 X117.98 Y106.63 E3.68013
G1 X116.654 Y106.63 E3.73063
G1 X116.654 Y108.957 E3.81921
G1 X103.769 Y108.957 E4.30985
G1 X103.769 Y106.63 E4.39843
G1 X101.442 Y106.63 E4.48701
G1 X101.442 Y104.304 E4.5756
G1 X91.064 Y104.304 E4.97078
G1 X91.064 Y106.63 E5.05936
G1 X80.505 Y106.63 E5.46141
G1 X80.505 Y96.071 E5.86347
G1 X82.831 Y96.071 E5.95205
G1 X82.831 Y93.745 E6.04063
G1 X85.158 Y93.745 E6.12922
G1 X85.158 Y91.419 E6.2178
G1 X89.81 Y91.419 E6.39496
G1 X89.81 Y89.092 E6.48354
G1 X116.654 Y89.092 E7.50567
G1 X116.654 Y91.364 E7.59216
G1 E5.59216 F2400
G92 E0
G1 X117.951 Y103.139 F9000
G1 E2 F2400
G1 F1200
G1 X117.951 Y95.075 E2.30707
G1 X117.544 Y95.075 E2.32257
G1 X117.544 Y102.974 E2.62336
G1 X117.137 Y102.974 E2.63886
G1 X117.137 Y95.075 E2.93965
G1 X116.73 Y95.075 E2.95515
G1 X116.73 Y102.974 E3.25594
G1 X116.323 Y102.974 E3.27144
G1 X116.323 Y95.075 E3.57223
G1 X115.916 Y95.075 E3.58773
G1 X115.916 Y102.974 E3.88852
G1 X115.508 Y102.974 E3.90402
G1 X115.508 Y95.075 E4.20481
G1 X115.324 Y95.075 E4.21183
G1 X115.324 Y91.343 E4.35395
G1 X115.508 Y91.343 E4.36097
G1 X115.508 Y89.422 E4.4341
G1 X115.916 Y89.422 E4.4496
G1 X115.916 Y91.343 E4.52272
G1 X116.323 Y91.343 E4.53822
G1 X116.323 Y89.257 E4.61762
G1 E2.61762 F2400
G92 E0
G1 X116.323 Y108.792 F9000
G1 E2 F2400
G1 F1200
G1 X116.323 Y106.707 E2.0794
G1 X115.916 Y106.707 E2.0949
G1 X115.916 Y108.627 E2.16802
G1 X115.508 Y108.627 E2.18352
G1 X115.508 Y106.542 E2.26292
G1 X115.101 Y108.792 F9000
G1 F1200
G1 X115.101 Y89.422 E3.00048
G1 X114.694 Y89.422 E3.01598
G1 X114.694 Y108.627 E3.74725
G1 X114.287 Y108.627 E3.76275
G1 X114.287 Y89.422 E4.49402
G1 X113.88 Y89.422 E4.50952
G1 X113.88 Y108.627 E5.2408
G1 X113.473 Y108.627 E5.2563
G1 X113.473 Y89.422 E5.98757
G1 X113.066 Y89.422 E6.00307
G1 X113.066 Y108.627 E6.73435
G1 X112.659 Y108.627 E6.74985
G1 X112.659 Y89.422 E7.48112
G1 X112.252 Y89.422 E7.49662
G1 X112.252 Y108.627 E8.22789
G1 X111.845 Y108.627 E8.24339
G1 X111.845 Y89.422 E8.97467
G1 X111.438 Y89.422 E8.99017
G1 X111.438 Y108.627 E9.72144
G1 X111.031 Y108.627 E9.73694
G1 X111.031 Y89.422 E10.46822
G1 X110.624 Y89.422 E10.48371
G1 X110.624 Y108.627 E11.21499
G1 X110.217 Y108.627 E11.23049
G1 X110.217 Y89.422 E11.96176
G1 X109.81 Y89.422 E11.97726
G1 X109.81 Y108.627 E12.70854
G1 X109.403 Y108.627 E12.72404
G1 X109.403 Y89.422 E13.45531
G1 X108.996 Y89.422 E13.47081
G1 X108.996 Y108.627 E14.20208
G1 X108.589 Y108.627 E14.21758
G1 X108.589 Y89.422 E14.94886
G1 X108.181 Y89.422 E14.96436
G1 X108.181 Y108.627 E15.69563
G1 X107.774 Y108.627 E15.71113
G1 X107.774 Y89.422 E16.44241
G1 X107.367 Y89.422 E16.45791
G1 X107.367 Y108.627 E17.18918
G1 X106.96 Y108.627 E17.20468
G1 X106.96 Y89.422 E17.93595
G1 X106.553 Y89.422 E17.95145
G1 X106.553 Y108.627 E18.68273
G1 X106.146 Y108.627 E18.69823
G1 X106.146 Y89.422 E19.4295
G1 X105.739 Y89.422 E19.445
G1 X105.739 Y108.627 E20.17628
G1 X105.332 Y108.627 E20.19178
G1 X105.332 Y89.422 E20.92305
G1 X104.925 Y89.422 E20.93855
G1 X104.925 Y108.627 E21.66982
G1 X104.518 Y108.627 E21.68532
G1 X104.518 Y89.422 E22.4166
G1 X104.111 Y89.422 E22.4321
G1 X104.111 Y108.627 E23.16337
G1 X104.098 Y108.627 E23.16385
G1 X104.098 Y106.301 E23.25244
G1 X103.704 Y106.301 E23.26745
G1 X103.704 Y89.422 E23.91015
G1 X103.297 Y89.422 E23.92565
G1 X103.297 Y106.301 E24.56834
G1 X102.89 Y106.301 E24.58384
G1 X102.89 Y89.422 E25.22653
G1 X102.483 Y89.422 E25.24203
G1 X102.483 Y106.301 E25.88472
G1 X102.076 Y106.301 E25.90022
G1 X102.076 Y89.422 E26.54291
G1 X101.669 Y89.422 E26.55841
G1 X101.669 Y103.974 E27.11252
G1 X101.262 Y103.974 E27.12802
G1 X101.262 Y89.422 E27.68214
G1 X100.854 Y89.422 E27.69763
G1 X100.854 Y103.974 E28.25175
G1 X100.447 Y103.974 E28.26725
G1 X100.447 Y89.422 E28.82136
G1 X100.04 Y89.422 E28.83686
G1 X100.04 Y103.974 E29.39097
G1 X99.633 Y103.974 E29.40647
G1 X99.633 Y89.422 E29.96058
G1 X99.226 Y89.422 E29.97608
G1 X99.226 Y103.974 E30.53019
G1 X98.819 Y103.974 E30.54569
G1 X98.819 Y89.422 E31.0998
G1 X98.412 Y89.422 E31.1153
G1 X98.412 Y103.974 E31.66941
G1 X98.005 Y103.974 E31.68491
G1 X98.005 Y89.422 E32.23902
G1 X97.598 Y89.422 E32.25452
G1 X97.598 Y103.974 E32.80863
G1 X97.191 Y103.974 E32.82413
G1 X97.191 Y89.422 E33.37824
G1 X96.784 Y89.422 E33.39374
G1 X96.784 Y103.974 E33.94785
G1 X96.377 Y103.974 E33.96335
G1 X96.377 Y89.422 E34.51746
G1 X95.97 Y89.422 E34.53296
G1 X95.97 Y103.974 E35.08707
G1 X95.563 Y103.974 E35.10257
G1 X95.563 Y89.422 E35.65668
G1 X95.156 Y89.422 E35.67218
G1 X95.156 Y103.974 E36.22629
G1 X94.749 Y103.974 E36.24179
G1 X94.749 Y89.422 E36.7959
G1 X94.342 Y89.422 E36.8114
G1 X94.342 Y103.974 E37.36551
G1 X93.935 Y103.974 E37.38101
G1 X93.935 Y89.422 E37.93512
G1 X93.527 Y89.422 E37.95062
G1 X93.527 Y103.974 E38.50473
G1 X93.12 Y103.974 E38.52023
G1 X93.12 Y89.422 E39.07434
G1 X92.713 Y89.422 E39.08984
G1 X92.713 Y103.974 E39.64395
G1 X92.306 Y103.974 E39.65945
G1 X92.306 Y89.422 E40.21356
G1 X91.899 Y89.422 E40.22906
G1 X91.899 Y103.974 E40.78317
G1 X91.492 Y103.974 E40.79867
G1 X91.492 Y89.422 E41.35278
G1 X91.085 Y89.422 E41.36828
G1 X91.085 Y103.974 E41.92239
G1 X90.734 Y103.974 E41.93576
G1 X90.734 Y106.301 E42.02434
G1 X90.678 Y106.301 E42.02647
G1 X90.678 Y89.422 E42.66917
G1 X90.271 Y89.422 E42.68467
G1 X90.271 Y106.301 E43.32736
G1 X89.864 Y106.301 E43.34286
G1 X89.864 Y91.748 E43.89697
G1 X89.457 Y91.748 E43.91247
G1 X89.457 Y106.301 E44.46658
G1 X89.05 Y106.301 E44.48208
G1 X89.05 Y91.748 E45.03619
G1 X88.643 Y91.748 E45.05169
G1 X88.643 Y106.301 E45.6058
G1 X88.236 Y106.301 E45.6213
G1 X88.236 Y91.748 E46.17541
G1 X87.829 Y91.748 E46.19091
G1 X87.829 Y106.301 E46.74502
G1 X87.422 Y106.301 E46.76052
G1 X87.422 Y91.748 E47.31463
G1 X87.015 Y91.748 E47.33013
G1 X87.015 Y106.301 E47.88424
G1 X86.608 Y106.301 E47.89974
G1 X86.608 Y91.748 E48.45385
G1 X86.2 Y91.748 E48.46935
G1 X86.2 Y106.301 E49.02346
G1 X85.793 Y106.301 E49.03896
G1 X85.793 Y91.748 E49.59307
G1 X85.487 Y91.748 E49.60472
G1 X85.487 Y94.075 E49.6933
G1 X85.386 Y94.075 E49.69715
G1 X85.386 Y106.301 E50.16268
G1 X84.979 Y106.301 E50.17818
G1 X84.979 Y94.075 E50.64371
G1 X84.572 Y94.075 E50.65921
G1 X84.572 Y106.301 E51.12474
G1 X84.165 Y106.301 E51.14024
G1 X84.165 Y94.075 E51.60577
G1 X83.758 Y94.075 E51.62127
G1 X83.758 Y106.301 E52.0868
G1 X83.351 Y106.301 E52.1023
G1 X83.351 Y94.075 E52.56782
G1 X83.161 Y94.075 E52.57506
G1 X83.161 Y96.401 E52.66364
G1 X82.944 Y96.401 E52.67191
G1 X82.944 Y106.301 E53.04885
G1 X82.537 Y106.301 E53.06435
G1 X82.537 Y96.401 E53.4413
G1 X82.13 Y96.401 E53.4568
G1 X82.13 Y106.301 E53.83375
G1 X81.723 Y106.301 E53.84925
G1 X81.723 Y96.401 E54.22619
G1 X81.316 Y96.401 E54.24169
G1 X81.316 Y106.301 E54.61864
G1 X80.909 Y106.301 E54.63414
G1 X80.909 Y96.236 E55.01736
G1 E53.01736 F2400
G92 E0
G1 X116.183 Y106.004 F9000
G1 E2 F2400
;TYPE:Support material interface
;WIDTH:0.38
G1 F1200
G1 X116.183 Y103.677 E2.07891
G1 X116.71 Y103.677 E2.09677
G1 X116.71 Y106.004 E2.17568
G1 X117.236 Y106.004 E2.19353
G1 X117.236 Y103.677 E2.27244
G1 X117.762 Y103.677 E2.2903
G1 X117.762 Y106.004 E2.36921
G1 X118.289 Y106.004 E2.38706
G1 X118.289 Y105.982 E2.38778
G1 E.38778 F2400
G92 E0
G1 X118.652 Y108.33 F9000
G1 E2 F2400
G1 F1200
G1 X118.353 Y108.33 E2.01012
G1 X118.353 Y106.07 E2.08677
G1 X118.451 Y106.181 E2.09177
G1 X118.815 Y106.423 E2.10661
G1 X118.815 Y108.33 E2.17128
G1 X119.341 Y108.33 E2.18914
G1 X119.341 Y106.585 E2.24832
G1 X119.513 Y106.607 E2.2542
G1 X119.868 Y106.607 E2.26622
G1 X119.868 Y108.33 E2.32466
G1 X120.394 Y108.33 E2.34251
G1 X120.394 Y106.607 E2.40095
G1 X120.68 Y106.607 E2.41065
G1 X120.68 Y108.33 E2.46909
G1 X120.557 Y108.33 E2.47324
G1 E.47324 F2400
G92 E0
G1 X221.339 Y104.304 F9000
G1 E2 F2400
;TYPE:Support material
;WIDTH:0.42
G1 F1200
G1 X218.008 Y104.304 E2.12685
G1 X218.008 Y93.745 E2.5289
G1 X221.339 Y93.745 E2.65575
G1 X221.339 Y104.249 E3.05571
G1 X220.936 Y104.139 F9000
G1 F1200
G1 X220.936 Y94.075 E3.43894
G1 X220.529 Y94.075 E3.45443
G1 X220.529 Y103.974 E3.83138
G1 X220.122 Y103.974 E3.84688
G1 X220.122 Y94.075 E4.22383
G1 X219.715 Y94.075 E4.23933
G1 X219.715 Y103.974 E4.61628
G1 X219.307 Y103.974 E4.63177
G1 X219.307 Y94.075 E5.00872
G1 X218.9 Y94.075 E5.02422
G1 X218.9 Y103.974 E5.40117
G1 X218.493 Y103.974 E5.41667
G1 X218.493 Y93.91 E5.79989
G1 E3.79989 F2400
G92 E0
G1 X216.119 Y93.775 F9000
G1 E2 F2400
;TYPE:Perimeter
G1 F1200
G1 X216.119 Y104.275 E2.39981
G1 X120.278 Y104.286 E6.04921
G1 X120.278 Y93.775 E6.44945
G1 X216.059 Y93.775 E10.09655
G1 X216.486 Y93.408 F9000
G1 F1200
G1 X216.486 Y104.641 E10.52427
G1 X119.912 Y104.652 E14.20156
G1 X119.912 Y93.408 E14.6297
G1 X216.426 Y93.408 E18.30471
G1 X216.852 Y93.042 F9000
G1 F1200
G1 X216.852 Y105.007 E18.76032
G1 X119.597 Y105.019 E22.46354
G1 X119.546 Y104.96 E22.46653
G1 X119.546 Y93.09 E22.91851
G1 X119.585 Y93.042 E22.92085
G1 X216.792 Y93.042 E26.62228
G1 X217.218 Y92.676 F9000
;TYPE:External perimeter
G1 F1200
G1 X217.218 Y105.374 E27.10578
G1 X119.458 Y105.385 E30.82828
G1 X119.213 Y105.167 E30.84075
G1 X119.179 Y104.996 E30.84739
G1 X119.179 Y93.054 E31.30212
G1 X119.213 Y92.882 E31.30877
G1 X119.444 Y92.676 E31.32056
G1 X217.158 Y92.676 E35.04128
G1 X217.018 Y93.022 F9000
G1 E33.04128 F2400
G92 E0
G1 X215.267 Y93.885 F9000
G1 E2 F2400
;TYPE:Solid infill
;WIDTH:0.421018
G1 F1200
G1 X215.844 Y94.462 E2.03121
G1 X215.844 Y94.982 E2.05104
G1 X214.912 Y94.049 E2.1014
G1 X214.392 Y94.049 E2.12124
G1 X215.844 Y95.501 E2.19965
G1 X215.844 Y96.021 E2.21949
G1 X213.873 Y94.049 E2.32596
G1 X213.353 Y94.049 E2.34579
G1 X215.844 Y96.541 E2.48032
G1 X215.844 Y97.06 E2.50015
G1 X212.834 Y94.049 E2.66273
G1 X212.314 Y94.049 E2.68257
G1 X215.844 Y97.58 E2.8732
G1 X215.844 Y98.099 E2.89304
G1 X211.795 Y94.049 E3.11173
G1 X211.275 Y94.049 E3.13156
G1 X215.844 Y98.619 E3.3783
G1 X215.844 Y99.138 E3.39814
G1 X210.756 Y94.049 E3.67294
G1 X210.236 Y94.049 E3.69278
G1 X215.844 Y99.658 E3.99563
G1 X215.844 Y100.177 E4.01547
G1 X209.717 Y94.049 E4.34637
G1 X209.197 Y94.049 E4.36621
G1 X215.844 Y100.697 E4.72517
G1 X215.844 Y101.216 E4.74501
G1 X208.677 Y94.049 E5.13202
G1 X208.158 Y94.049 E5.15186
G1 X215.844 Y101.736 E5.56693
G1 X215.844 Y102.255 E5.58677
G1 X207.638 Y94.049 E6.02989
G1 X207.119 Y94.049 E6.04973
G1 X215.844 Y102.775 E6.52091
G1 X215.844 Y103.295 E6.54075
G1 X206.599 Y94.049 E7.03998
G1 X206.08 Y94.049 E7.05982
G1 X215.844 Y103.814 E7.58711
G1 X215.844 Y104 E7.5942
G1 X215.511 Y104 E7.60694
G1 X205.56 Y94.049 E8.14427
G1 X205.041 Y94.049 E8.16411
G1 X214.991 Y104 E8.70144
G1 X214.472 Y104 E8.72127
G1 X204.521 Y94.049 E9.25861
G1 X204.002 Y94.049 E9.27844
G1 X213.952 Y104 E9.81578
G1 X213.433 Y104 E9.83562
G1 X203.482 Y94.049 E10.37296
G1 X202.963 Y94.049 E10.39279
G1 X212.913 Y104 E10.93014
G1 X212.394 Y104 E10.94997
G1 X202.443 Y94.049 E11.48732
G1 X201.923 Y94.049 E11.50716
G1 X211.874 Y104 E12.0445
G1 X211.355 Y104 E12.06434
G1 X201.404 Y94.049 E12.60169
G1 X200.884 Y94.049 E12.62153
G1 X210.836 Y104 E13.15889
G1 X210.316 Y104.001 E13.17872
G1 X200.365 Y94.049 E13.71608
G1 X199.845 Y94.049 E13.73592
G1 X209.797 Y104.001 E14.27328
G1 X209.277 Y104.001 E14.29312
G1 X199.326 Y94.049 E14.83048
G1 X198.806 Y94.049 E14.85032
G1 X208.758 Y104.001 E15.38769
G1 X208.238 Y104.001 E15.40752
G1 X198.287 Y94.049 E15.9449
G1 X197.767 Y94.049 E15.96473
G1 X207.719 Y104.001 E16.50211
G1 X207.199 Y104.001 E16.52195
G1 X197.248 Y94.049 E17.05932
G1 X196.728 Y94.049 E17.07916
G1 X206.68 Y104.001 E17.61654
G1 X206.16 Y104.001 E17.63638
G1 X196.209 Y94.049 E18.17377
G1 X195.689 Y94.049 E18.1936
G1 X205.641 Y104.001 E18.73099
G1 X205.121 Y104.001 E18.75083
G1 X195.169 Y94.049 E19.28822
G1 X194.65 Y94.049 E19.30806
G1 X204.602 Y104.001 E19.84545
G1 X204.082 Y104.001 E19.86529
G1 X194.13 Y94.049 E20.40269
G1 X193.611 Y94.049 E20.42252
G1 X203.563 Y104.001 E20.95993
G1 X203.043 Y104.001 E20.97976
G1 X193.091 Y94.049 E21.51717
G1 X192.572 Y94.049 E21.537
G1 X202.524 Y104.001 E22.07441
G1 X202.004 Y104.002 E22.09425
G1 X192.052 Y94.049 E22.63166
G1 X191.533 Y94.049 E22.6515
G1 X201.485 Y104.002 E23.18891
G1 X200.965 Y104.002 E23.20875
G1 X191.013 Y94.049 E23.74617
G1 X190.494 Y94.049 E23.766
G1 X200.446 Y104.002 E24.30343
G1 X199.927 Y104.002 E24.32326
G1 X189.974 Y94.049 E24.86069
G1 X189.455 Y94.049 E24.88052
G1 X199.407 Y104.002 E25.41795
