; generated by PrusaSlicer 2.4.2+win64 on 2022-08-28 at 07:46:43 UTC

; 

; external perimeters extrusion width = 0.45mm
; perimeters extrusion width = 0.45mm
; infill extrusion width = 0.45mm
; solid infill extrusion width = 0.45mm
; top infill extrusion width = 0.45mm
; support material extrusion width = 0.38mm
; first layer extrusion width = 0.42mm

M107
M190 S90 ; set bed temperature and wait for it to be reached
M104 S245 ; set temperature
;TYPE:Custom
G28 ; home all axes
G1 Z5 F5000 ; lift nozzle
M109 S245 ; set temperature and wait for it to be reached
G21 ; set units to millimeters
G90 ; use absolute coordinates
M82 ; use absolute distances for extrusion
G92 E0
M107
;LAYER_CHANGE
;Z:0.25
;HEIGHT:0.25
G1 Z.25 F9000
G1 E-2 F2400
G92 E0
G1 X67.68 Y86.387 F9000
G1 E2 F2400
M204 S500
;TYPE:Skirt/Brim
;WIDTH:0.42
G1 F1200
G1 X69.737 Y84.774 E2.09954
G1 X71.647 Y83.648 E2.18396
G1 X73.679 Y82.761 E2.26839
G1 X75.409 Y82.222 E2.33737
G1 X77.585 Y81.798 E2.42179
G1 X80 Y81.634 E2.51396
G1 X220.203 Y81.64 E7.85256
G1 X222.011 Y81.749 E7.92154
G1 X224.197 Y82.125 E8.00596
G1 X226.701 Y82.905 E8.10584
G1 X228.712 Y83.837 E8.19027
G1 X230.263 Y84.774 E8.25924
G1 X232.327 Y86.392 E8.35911
G1 X233.878 Y87.977 E8.44354
G1 X234.995 Y89.403 E8.51251
G1 X236.352 Y91.648 E8.61238
G1 X237.095 Y93.299 E8.68136
G1 X237.778 Y95.409 E8.76578
G1 X238.251 Y97.989 E8.86566
G1 X238.36 Y100.203 E8.95009
G1 X238.251 Y102.011 E9.01906
G1 X237.778 Y104.591 E9.11893
G1 X237.239 Y106.321 E9.1879
G1 X236.352 Y108.352 E9.27233
G1 X234.995 Y110.597 E9.3722
G1 X233.878 Y112.023 E9.44118
G1 X232.327 Y113.608 E9.5256
G1 X230.263 Y115.226 E9.62548
G1 X228.353 Y116.352 E9.7099
G1 X226.701 Y117.095 E9.77888
G1 X224.591 Y117.778 E9.86331
G1 X222.415 Y118.202 E9.94773
G1 X220 Y118.366 E10.0399
G1 X80 Y118.366 E15.37076
G1 X77.989 Y118.251 E15.44748
G1 X75.409 Y117.778 E15.54735
G1 X73.299 Y117.095 E15.63178
G1 X71.288 Y116.163 E15.71621
G1 X69.737 Y115.226 E15.78518
G1 X67.673 Y113.608 E15.88505
G1 X66.122 Y112.023 E15.96948
G1 X65.005 Y110.597 E16.03845
G1 X63.648 Y108.353 E16.13832
G1 X62.761 Y106.321 E16.22275
G1 X62.222 Y104.591 E16.29172
G1 X61.798 Y102.415 E16.37615
G1 X61.641 Y99.774 E16.47688
G1 X61.798 Y97.585 E16.56045
G1 X62.222 Y95.409 E16.64488
G1 X62.905 Y93.299 E16.7293
G1 X63.648 Y91.648 E16.79828
G1 X65.005 Y89.403 E16.89815
G1 X66.122 Y87.977 E16.96712
G1 X67.637 Y86.429 E17.0496
G1 E15.0496 F2400
G92 E0
G1 X96.075 Y100 F9000
G1 E2 F2400
;TYPE:Perimeter
G1 F1200
G1 X96.183 Y99.16 E2.03226
G1 X96.487 Y98.376 E2.06428
G1 X96.944 Y97.669 E2.09631
G1 X97.524 Y97.033 E2.12909
G1 X98.211 Y96.45 E2.16344
G1 X99.004 Y95.905 E2.20005
G1 X99.9 Y95.388 E2.23945
G1 X100.902 Y94.893 E2.28198
G1 X102.009 Y94.418 E2.32786
G1 X103.221 Y93.959 E2.37722
G1 X104.538 Y93.516 E2.43011
G1 X105.957 Y93.089 E2.48655
G1 X107.477 Y92.678 E2.5465
G1 X109.094 Y92.284 E2.6099
G1 X110.806 Y91.905 E2.67666
G1 X112.61 Y91.545 E2.74668
G1 X114.5 Y91.202 E2.81984
G1 X116.474 Y90.878 E2.896
G1 X118.526 Y90.573 E2.97499
G1 X120.652 Y90.288 E3.05668
G1 X122.847 Y90.023 E3.14088
G1 X125.107 Y89.779 E3.22741
G1 X127.425 Y89.557 E3.31609
G1 X129.8 Y89.356 E3.40685
G1 X134.677 Y89.024 E3.59299
G1 X139.703 Y88.784 E3.78459
G1 X144.827 Y88.639 E3.97977
G1 X149.536 Y88.595 E4.15909
G1 X155.172 Y88.639 E4.37369
G1 X160.297 Y88.784 E4.56891
G1 X165.323 Y89.024 E4.76051
G1 X170.2 Y89.356 E4.94665
G1 X172.575 Y89.557 E5.03741
G1 X174.893 Y89.779 E5.12609
G1 X177.153 Y90.023 E5.21262
G1 X179.348 Y90.288 E5.29682
G1 X181.474 Y90.573 E5.37851
G1 X183.526 Y90.878 E5.45751
G1 X185.5 Y91.202 E5.53366
G1 X187.39 Y91.545 E5.60682
G1 X189.194 Y91.905 E5.67684
G1 X190.906 Y92.284 E5.7436
G1 X192.523 Y92.678 E5.807
G1 X194.043 Y93.089 E5.86695
G1 X195.462 Y93.516 E5.92339
G1 X196.779 Y93.959 E5.97628
G1 X197.991 Y94.418 E6.02564
G1 X199.098 Y94.893 E6.07152
G1 X200.1 Y95.388 E6.11405
G1 X200.996 Y95.905 E6.15345
G1 X201.789 Y96.45 E6.19006
G1 X202.476 Y97.033 E6.22441
G1 X203.056 Y97.669 E6.25719
G1 X203.514 Y98.376 E6.28923
G1 X203.817 Y99.16 E6.32125
G1 X203.925 Y100 E6.3535
G1 X203.817 Y100.84 E6.38576
G1 X203.513 Y101.624 E6.41778
G1 X203.056 Y102.331 E6.44981
G1 X202.476 Y102.967 E6.48259
G1 X201.789 Y103.55 E6.51694
G1 X200.996 Y104.095 E6.55355
G1 X200.1 Y104.612 E6.59295
G1 X199.098 Y105.107 E6.63548
G1 X197.991 Y105.582 E6.68136
G1 X196.779 Y106.041 E6.73072
G1 X195.462 Y106.484 E6.78361
G1 X194.043 Y106.911 E6.84005
G1 X192.523 Y107.322 E6.9
G1 X190.906 Y107.716 E6.9634
G1 X189.194 Y108.095 E7.03016
G1 X187.39 Y108.455 E7.10018
G1 X185.5 Y108.798 E7.17334
G1 X183.526 Y109.122 E7.24949
G1 X181.474 Y109.427 E7.3285
G1 X179.348 Y109.712 E7.41018
G1 X177.153 Y109.977 E7.49438
G1 X174.893 Y110.221 E7.58091
G1 X172.575 Y110.443 E7.66959
G1 X170.2 Y110.644 E7.76035
G1 X165.323 Y110.976 E7.94649
G1 X160.297 Y111.216 E8.13809
G1 X155.173 Y111.361 E8.33327
G1 X150 Y111.409 E8.53025
G1 X144.827 Y111.361 E8.72723
G1 X139.703 Y111.216 E8.92241
G1 X134.677 Y110.976 E9.11401
G1 X129.8 Y110.644 E9.30015
G1 X127.425 Y110.443 E9.39092
G1 X125.107 Y110.221 E9.47959
G1 X122.847 Y109.977 E9.56612
G1 X120.652 Y109.712 E9.65033
G1 X118.526 Y109.427 E9.73201
G1 X116.474 Y109.122 E9.81101
G1 X114.5 Y108.798 E9.88716
G1 X112.61 Y108.455 E9.96032
G1 X110.806 Y108.095 E10.03034
G1 X109.094 Y107.716 E10.0971
G1 X107.477 Y107.322 E10.1605
G1 X105.957 Y106.911 E10.22045
G1 X104.538 Y106.484 E10.27689
G1 X103.221 Y106.041 E10.32978
G1 X102.009 Y105.582 E10.37914
G1 X100.902 Y105.107 E10.42502
G1 X99.9 Y104.612 E10.46755
G1 X99.004 Y104.095 E10.50695
G1 X98.211 Y103.55 E10.54357
G1 X97.524 Y102.967 E10.57791
G1 X96.944 Y102.331 E10.61069
G1 X96.486 Y101.624 E10.64273
G1 X96.183 Y100.84 E10.67476
G1 X96.082 Y100.06 E10.70472
G1 X96.444 Y100 F9000
G1 F1200
G1 X96.541 Y99.251 E10.73349
G1 X96.815 Y98.543 E10.76238
G1 X97.235 Y97.894 E10.79183
G1 X97.779 Y97.297 E10.82256
G1 X98.434 Y96.741 E10.85531
G1 X99.199 Y96.215 E10.89066
G1 X100.073 Y95.711 E10.92906
G1 X101.055 Y95.226 E10.97077
G1 X102.146 Y94.757 E11.01598
G1 X103.344 Y94.304 E11.06477
G1 X104.649 Y93.865 E11.11717
G1 X106.058 Y93.442 E11.17319
G1 X107.568 Y93.033 E11.23277
G1 X109.177 Y92.64 E11.29585
G1 X110.882 Y92.264 E11.36232
G1 X112.678 Y91.905 E11.43207
G1 X114.562 Y91.563 E11.50499
G1 X116.53 Y91.24 E11.58092
G1 X118.577 Y90.935 E11.65971
G1 X120.698 Y90.651 E11.74121
G1 X122.889 Y90.387 E11.82523
G1 X125.144 Y90.143 E11.91159
G1 X127.458 Y89.922 E12.0001
G1 X129.828 Y89.721 E12.09068
G1 X134.698 Y89.39 E12.27656
G1 X139.717 Y89.15 E12.46788
G1 X144.834 Y89.006 E12.66279
G1 X149.536 Y88.962 E12.84186
G1 X155.165 Y89.006 E13.0562
G1 X160.283 Y89.15 E13.25114
G1 X165.302 Y89.39 E13.44246
G1 X170.172 Y89.721 E13.62835
G1 X172.542 Y89.922 E13.71892
G1 X174.856 Y90.143 E13.80743
G1 X177.111 Y90.387 E13.89379
G1 X179.302 Y90.651 E13.97782
G1 X181.423 Y90.935 E14.05931
G1 X183.47 Y91.24 E14.1381
G1 X185.438 Y91.563 E14.21403
G1 X187.322 Y91.905 E14.28695
G1 X189.118 Y92.264 E14.35671
G1 X190.823 Y92.64 E14.42318
G1 X192.432 Y93.033 E14.48625
G1 X193.942 Y93.442 E14.54583
G1 X195.351 Y93.865 E14.60185
G1 X196.656 Y94.304 E14.65426
G1 X197.854 Y94.757 E14.70305
G1 X198.945 Y95.226 E14.74825
G1 X199.927 Y95.711 E14.78996
G1 X200.801 Y96.215 E14.82836
G1 X201.566 Y96.741 E14.86371
G1 X202.221 Y97.297 E14.89646
G1 X202.765 Y97.894 E14.92719
G1 X203.186 Y98.543 E14.95665
G1 X203.46 Y99.251 E14.98554
G1 X203.556 Y100 E15.0143
G1 X203.459 Y100.749 E15.04307
G1 X203.185 Y101.457 E15.07196
G1 X202.765 Y102.106 E15.10141
G1 X202.221 Y102.703 E15.13215
G1 X201.566 Y103.259 E15.16489
G1 X200.801 Y103.785 E15.20025
G1 X199.927 Y104.289 E15.23864
G1 X198.945 Y104.774 E15.28035
G1 X197.854 Y105.243 E15.32556
G1 X196.656 Y105.696 E15.37435
G1 X195.351 Y106.135 E15.42676
G1 X193.942 Y106.558 E15.48278
G1 X192.432 Y106.967 E15.54236
G1 X190.823 Y107.36 E15.60543
G1 X189.118 Y107.736 E15.6719
G1 X187.322 Y108.095 E15.74166
G1 X185.438 Y108.437 E15.81457
G1 X183.47 Y108.76 E15.8905
G1 X181.423 Y109.065 E15.9693
G1 X179.302 Y109.349 E16.05079
G1 X177.111 Y109.613 E16.13481
G1 X174.856 Y109.857 E16.22117
G1 X172.542 Y110.078 E16.30968
G1 X170.172 Y110.279 E16.40026
G1 X165.302 Y110.61 E16.58614
G1 X160.283 Y110.85 E16.77747
G1 X155.166 Y110.994 E16.97238
G1 X150 Y111.043 E17.1691
G1 X144.834 Y110.994 E17.36581
G1 X139.717 Y110.85 E17.56072
G1 X134.698 Y110.61 E17.75205
G1 X129.828 Y110.279 E17.93793
G1 X127.458 Y110.078 E18.02851
G1 X125.144 Y109.857 E18.11702
G1 X122.889 Y109.613 E18.20338
G1 X120.698 Y109.349 E18.2874
G1 X118.577 Y109.065 E18.36889
G1 X116.53 Y108.76 E18.44769
G1 X114.562 Y108.437 E18.52362
G1 X112.678 Y108.095 E18.59654
G1 X110.882 Y107.736 E18.66629
G1 X109.177 Y107.36 E18.73276
G1 X107.568 Y106.967 E18.79584
G1 X106.058 Y106.558 E18.85542
G1 X104.649 Y106.135 E18.91143
G1 X103.344 Y105.696 E18.96384
G1 X102.146 Y105.243 E19.01263
G1 X101.055 Y104.774 E19.05784
G1 X100.073 Y104.289 E19.09955
G1 X99.199 Y103.785 E19.13794
G1 X98.434 Y103.259 E19.1733
G1 X97.779 Y102.703 E19.20604
G1 X97.235 Y102.106 E19.23678
G1 X96.814 Y101.457 E19.26623
G1 X96.54 Y100.749 E19.29513
G1 X96.452 Y100.06 E19.3216
G1 X96.819 Y99.953 F9000
G1 F1200
G1 X96.898 Y99.342 E19.34509
G1 X97.143 Y98.711 E19.37085
G1 X97.526 Y98.118 E19.39772
G1 X98.033 Y97.561 E19.4264
G1 X98.657 Y97.032 E19.45755
G1 X99.395 Y96.525 E19.49165
G1 X100.246 Y96.034 E19.52903
G1 X101.209 Y95.559 E19.56993
G1 X102.283 Y95.097 E19.61446
G1 X103.467 Y94.649 E19.66268
G1 X104.76 Y94.214 E19.7146
G1 X106.158 Y93.794 E19.7702
G1 X107.659 Y93.388 E19.82941
G1 X109.26 Y92.997 E19.89216
G1 X110.957 Y92.623 E19.95834
G1 X112.747 Y92.265 E20.02783
G1 X114.625 Y91.924 E20.1005
G1 X116.587 Y91.602 E20.17621
G1 X118.628 Y91.298 E20.2548
G1 X120.745 Y91.014 E20.3361
G1 X122.93 Y90.751 E20.41994
G1 X125.181 Y90.508 E20.50613
G1 X127.491 Y90.286 E20.59448
G1 X129.856 Y90.087 E20.68486
G1 X134.72 Y89.755 E20.8705
G1 X139.731 Y89.516 E21.06154
G1 X144.841 Y89.372 E21.25618
G1 X149.537 Y89.328 E21.43499
G1 X155.159 Y89.372 E21.64908
G1 X160.269 Y89.516 E21.84374
G1 X165.28 Y89.755 E22.03478
G1 X170.144 Y90.087 E22.22041
G1 X172.509 Y90.286 E22.31079
G1 X174.819 Y90.508 E22.39915
G1 X177.07 Y90.751 E22.48533
G1 X179.256 Y91.014 E22.56918
G1 X181.372 Y91.298 E22.65048
G1 X183.413 Y91.602 E22.72906
G1 X185.375 Y91.924 E22.80477
G1 X187.253 Y92.265 E22.87745
G1 X189.043 Y92.623 E22.94694
G1 X190.74 Y92.997 E23.01312
G1 X192.341 Y93.388 E23.07587
G1 X193.842 Y93.794 E23.13508
G1 X195.24 Y94.214 E23.19067
G1 X196.533 Y94.649 E23.2426
G1 X197.717 Y95.097 E23.29082
G1 X198.791 Y95.559 E23.33535
G1 X199.754 Y96.034 E23.37624
G1 X200.605 Y96.525 E23.41363
G1 X201.343 Y97.032 E23.44773
G1 X201.967 Y97.561 E23.47887
G1 X202.474 Y98.118 E23.50756
G1 X202.857 Y98.711 E23.53443
G1 X203.102 Y99.342 E23.5602
G1 X203.187 Y100 E23.58547
G1 X203.102 Y100.658 E23.61075
G1 X202.857 Y101.289 E23.63651
G1 X202.474 Y101.882 E23.66338
G1 X201.967 Y102.439 E23.69207
G1 X201.343 Y102.968 E23.72321
G1 X200.605 Y103.475 E23.75731
G1 X199.754 Y103.966 E23.7947
G1 X198.791 Y104.441 E23.83559
G1 X197.717 Y104.903 E23.88012
G1 X196.533 Y105.351 E23.92834
G1 X195.24 Y105.786 E23.98027
G1 X193.842 Y106.206 E24.03587
G1 X192.341 Y106.612 E24.09508
G1 X190.74 Y107.003 E24.15783
G1 X189.043 Y107.377 E24.224
G1 X187.253 Y107.735 E24.29349
G1 X185.375 Y108.076 E24.36617
G1 X183.413 Y108.398 E24.44188
G1 X181.372 Y108.702 E24.52047
G1 X179.256 Y108.986 E24.60177
G1 X177.07 Y109.249 E24.68561
G1 X174.819 Y109.492 E24.7718
G1 X172.509 Y109.714 E24.86015
G1 X170.144 Y109.913 E24.95053
G1 X165.28 Y110.245 E25.13616
G1 X160.269 Y110.484 E25.32721
G1 X155.159 Y110.628 E25.52185
G1 X150 Y110.676 E25.71831
G1 X144.841 Y110.628 E25.91476
G1 X139.731 Y110.484 E26.1094
G1 X134.72 Y110.245 E26.30045
G1 X129.856 Y109.913 E26.48608
G1 X127.491 Y109.714 E26.57646
G1 X125.181 Y109.492 E26.66481
G1 X122.93 Y109.249 E26.751
G1 X120.744 Y108.986 E26.83484
G1 X118.628 Y108.702 E26.91615
G1 X116.587 Y108.398 E26.99473
G1 X114.625 Y108.076 E27.07044
G1 X112.747 Y107.735 E27.14312
G1 X110.957 Y107.377 E27.21261
G1 X109.26 Y107.003 E27.27879
G1 X107.659 Y106.612 E27.34153
G1 X106.158 Y106.206 E27.40075
G1 X104.76 Y105.786 E27.45634
G1 X103.467 Y105.351 E27.50827
G1 X102.283 Y104.903 E27.55649
G1 X101.209 Y104.441 E27.60102
G1 X100.246 Y103.966 E27.64191
G1 X99.395 Y103.475 E27.6793
G1 X98.657 Y102.968 E27.7134
G1 X98.033 Y102.439 E27.74454
G1 X97.526 Y101.882 E27.77323
G1 X97.143 Y101.289 E27.8001
G1 X96.898 Y100.658 E27.82587
G1 X96.815 Y100.013 E27.85065
G1 X97.183 Y100 F9000
;TYPE:External perimeter
G1 F1200
G1 X97.256 Y99.432 E27.87244
G1 X97.471 Y98.878 E27.89508
G1 X97.817 Y98.343 E27.91936
G1 X98.288 Y97.826 E27.946
G1 X98.88 Y97.324 E27.97555
G1 X99.591 Y96.835 E28.00839
G1 X100.418 Y96.358 E28.04477
G1 X101.362 Y95.892 E28.08485
G1 X102.42 Y95.437 E28.1287
G1 X103.591 Y94.994 E28.17635
G1 X104.871 Y94.564 E28.22779
G1 X106.259 Y94.146 E28.28297
G1 X107.751 Y93.743 E28.34181
G1 X109.343 Y93.354 E28.40423
G1 X111.033 Y92.981 E28.47012
G1 X112.815 Y92.624 E28.53935
G1 X114.687 Y92.285 E28.61178
G1 X116.643 Y91.964 E28.68727
G1 X118.68 Y91.661 E28.76565
G1 X120.791 Y91.378 E28.84676
G1 X122.972 Y91.115 E28.93042
G1 X125.218 Y90.872 E29.01644
G1 X127.523 Y90.651 E29.10463
G1 X129.884 Y90.452 E29.19482
G1 X134.741 Y90.121 E29.38019
G1 X139.745 Y89.882 E29.57096
G1 X144.848 Y89.738 E29.76534
G1 X149.537 Y89.694 E29.94389
G1 X155.152 Y89.738 E30.15771
G1 X160.255 Y89.882 E30.35209
G1 X165.259 Y90.121 E30.54286
G1 X170.116 Y90.452 E30.72824
G1 X172.476 Y90.651 E30.81843
G1 X174.782 Y90.872 E30.90662
G1 X177.028 Y91.115 E30.99264
G1 X179.209 Y91.378 E31.0763
G1 X181.32 Y91.661 E31.15741
G1 X183.357 Y91.964 E31.23579
G1 X185.313 Y92.285 E31.31128
G1 X187.185 Y92.624 E31.38371
G1 X188.967 Y92.981 E31.45294
G1 X190.657 Y93.354 E31.51882
G1 X192.249 Y93.743 E31.58124
G1 X193.741 Y94.146 E31.64009
G1 X195.129 Y94.564 E31.69526
G1 X196.409 Y94.994 E31.7467
G1 X197.58 Y95.437 E31.79436
G1 X198.638 Y95.892 E31.83821
G1 X199.582 Y96.358 E31.87829
G1 X200.409 Y96.835 E31.91467
G1 X201.12 Y97.324 E31.9475
G1 X201.712 Y97.826 E31.97705
G1 X202.183 Y98.343 E32.00369
G1 X202.529 Y98.878 E32.02798
G1 X202.744 Y99.433 E32.05062
G1 X202.817 Y100 E32.0724
G1 X202.744 Y100.568 E32.09419
G1 X202.529 Y101.122 E32.11683
G1 X202.183 Y101.657 E32.14111
G1 X201.712 Y102.174 E32.16775
G1 X201.12 Y102.676 E32.1973
G1 X200.409 Y103.165 E32.23014
G1 X199.582 Y103.642 E32.26652
G1 X198.638 Y104.108 E32.30659
G1 X197.58 Y104.563 E32.35045
G1 X196.409 Y105.006 E32.3981
G1 X195.129 Y105.436 E32.44954
G1 X193.741 Y105.854 E32.50472
G1 X192.249 Y106.257 E32.56356
G1 X190.657 Y106.646 E32.62598
G1 X188.967 Y107.019 E32.69187
G1 X187.185 Y107.376 E32.76109
G1 X185.313 Y107.715 E32.83353
G1 X183.357 Y108.036 E32.90901
G1 X181.32 Y108.339 E32.9874
G1 X179.209 Y108.622 E33.06851
G1 X177.028 Y108.885 E33.15217
G1 X174.782 Y109.128 E33.23818
G1 X172.476 Y109.349 E33.32637
G1 X170.116 Y109.548 E33.41656
G1 X165.259 Y109.879 E33.60194
G1 X160.255 Y110.118 E33.79271
G1 X155.152 Y110.262 E33.98708
G1 X150 Y110.31 E34.18328
G1 X144.848 Y110.262 E34.37947
G1 X139.745 Y110.118 E34.57385
G1 X134.741 Y109.879 E34.76461
G1 X129.884 Y109.548 E34.94999
G1 X127.523 Y109.349 E35.04018
G1 X125.218 Y109.128 E35.12837
G1 X122.972 Y108.885 E35.21439
G1 X120.791 Y108.622 E35.29805
G1 X118.68 Y108.339 E35.37916
G1 X116.643 Y108.036 E35.45754
G1 X114.687 Y107.715 E35.53303
G1 X112.815 Y107.376 E35.60546
G1 X111.033 Y107.019 E35.67469
G1 X109.343 Y106.646 E35.74057
G1 X107.751 Y106.257 E35.80299
G1 X106.259 Y105.854 E35.86184
G1 X104.871 Y105.436 E35.91701
G1 X103.591 Y105.006 E35.96845
G1 X102.42 Y104.563 E36.01611
G1 X101.362 Y104.108 E36.05996
G1 X100.418 Y103.642 E36.10004
G1 X99.591 Y103.165 E36.13642
G1 X98.88 Y102.676 E36.16925
G1 X98.288 Y102.174 E36.1988
G1 X97.817 Y101.657 E36.22544
G1 X97.471 Y101.122 E36.24973
G1 X97.256 Y100.567 E36.27237
G1 X97.19 Y100.06 E36.29187
G1 X96.837 Y99.799 F9000
G1 E34.29187 F2400
G92 E0
